X:83
T:Obal Dins Lo Coumblo
M:6/8
L:1/8
N:Gai
N:La Bourre 4th edition 1929, page 82
Z:Steve Mansfield www.lesession.co.uk June 2012
K:Bb
F | B2 B c2 c | (e2 d) (ce) d |
c2 B (ce) d | c2 (B !fermata! c3) - | (ced) B2 G | 
F F F B2 B | c f e (c{e}d) c | !fermata! B6 |]

